; generated by PrusaSlicer 2.5.0+MacOS-x64 on 2023-02-19 at 14:14:40 UTC


;
;

;
;
; 

; external perimeters extrusion width = 0.45mm
; perimeters extrusion width = 0.45mm
; infill extrusion width = 0.45mm
; solid infill extrusion width = 0.45mm
; top infill extrusion width = 0.40mm
; first layer extrusion width = 0.42mm

M73 P0 R80
M201 X2500 Y2500 Z400 E5000 ; sets maximum accelerations, mm/sec^2
M203 X180 Y180 Z12 E80 ; sets maximum feedrates, mm / sec
M204 P1250 R1250 T2500 ; sets acceleration (P, T) and retract acceleration (R), mm/sec^2
M205 X8.00 Y8.00 Z2.00 E10.00 ; sets the jerk limits, mm/sec
M205 S0 T0 ; sets the minimum extruding and travel feed rate, mm/sec
M107
;TYPE:Custom
M862.3 P "MINI" ; printer model check
G90 ; use absolute coordinates
M83 ; extruder relative mode
M104 S170 ; set extruder temp for bed leveling
M140 S60 ; set bed temp
M109 R170 ; wait for bed leveling temp
M190 S60 ; wait for bed temp
M204 T1250 ; set travel acceleration
G28 ; home all without mesh bed level
G29 ; mesh bed leveling 
M204 T2500 ; restore travel acceleration
M104 S215 ; set extruder temp
G92 E0
G1 Y-2 X179 F2400
G1 Z3 F720
M109 S215 ; wait for extruder temp

; intro line
G1 X170 F1000
G1 Z0.2 F720
G1 X110 E8 F900
G1 X40 E10 F700
G92 E0

M221 S95 ; set flow
G21 ; set units to millimeters
G90 ; use absolute coordinates
M83 ; use relative distances for extrusion
M900 K0.2 ; Filament gcode LA 1.5
; ; Filament gcode LA 1.0
M107
;LAYER_CHANGE
;Z:0.2
;HEIGHT:0.2
;BEFORE_LAYER_CHANGE
G92 E0.0
;0.2


G1 E-3.2 F4200
G1 Z.2 F720
;AFTER_LAYER_CHANGE
;0.2
G1 Z.4
G1 X79.651 Y78.26 F9000
G1 Z.2 F720
G1 E3.2 F2400
M204 P800
;TYPE:Skirt/Brim
;WIDTH:0.42
G1 F1200
G1 X80.878 Y77.166 E.05153
G1 X82.206 Y76.197 E.05154
G1 X83.623 Y75.364 E.05154
G1 X85.115 Y74.672 E.05156
G1 X86.667 Y74.131 E.05156
G1 X88.265 Y73.745 E.05153
G1 X89.892 Y73.517 E.05153
G1 X91.555 Y73.45 E.05218
G1 X93.177 Y73.543 E.05093
G1 X94.8 Y73.797 E.05152
G1 X96.392 Y74.21 E.05156
G1 X97.935 Y74.776 E.05156
G1 X99.416 Y75.491 E.05154
G1 X100.819 Y76.347 E.05153
G1 X102.131 Y77.337 E.05154
G1 X103.341 Y78.451 E.05156
G1 X104.434 Y79.678 E.05153
G1 X105.403 Y81.006 E.05154
G1 X106.236 Y82.423 E.05154
G1 X106.928 Y83.915 E.05156
G1 X107.469 Y85.467 E.05155
G1 X107.855 Y87.065 E.05153
G1 X108.083 Y88.692 E.05153
G1 X108.151 Y90.335 E.05157
G1 X108.057 Y91.977 E.05154
G1 X107.803 Y93.6 E.05152
G1 X107.39 Y95.192 E.05156
G1 X106.824 Y96.735 E.05156
G1 X106.109 Y98.216 E.05154
G1 X105.253 Y99.619 E.05153
G1 X104.263 Y100.931 E.05154
G1 X103.149 Y102.141 E.05156
G1 X101.922 Y103.234 E.05153
G1 X100.594 Y104.203 E.05154
G1 X99.177 Y105.036 E.05154
G1 X97.685 Y105.728 E.05156
G1 X96.133 Y106.269 E.05155
G1 X94.535 Y106.655 E.05153
G1 X92.908 Y106.883 E.05153
G1 X91.265 Y106.951 E.05157
G1 X89.623 Y106.857 E.05154
G1 X88 Y106.603 E.05152
G1 X86.408 Y106.19 E.05156
G1 X84.865 Y105.624 E.05156
G1 X83.384 Y104.909 E.05154
G1 X81.982 Y104.053 E.05153
G1 X80.669 Y103.063 E.05154
G1 X79.459 Y101.949 E.05156
G1 X78.366 Y100.722 E.05153
G1 X77.397 Y99.394 E.05154
G1 X76.564 Y97.977 E.05154
G1 X75.872 Y96.485 E.05156
G1 X75.331 Y94.933 E.05155
G1 X74.945 Y93.335 E.05153
G1 X74.717 Y91.708 E.05153
G1 X74.649 Y90.065 E.05157
G1 X74.743 Y88.423 E.05154
G1 X74.997 Y86.8 E.05152
G1 X75.41 Y85.208 E.05156
G1 X75.976 Y83.665 E.05156
G1 X76.691 Y82.184 E.05154
G1 X77.547 Y80.782 E.05153
G1 X78.537 Y79.469 E.05154
G1 X79.61 Y78.304 E.04968
M204 P1000
G1 X79.887 Y78.558 F9000
M204 P800
G1 F1200
G1 X81.102 Y77.469 E.05118
G1 X82.4 Y76.521 E.05038
G1 X83.784 Y75.704 E.05038
G1 X85.242 Y75.027 E.0504
G1 X86.759 Y74.497 E.0504
G1 X88.32 Y74.118 E.05037
G1 X89.911 Y73.893 E.05037
G1 X91.537 Y73.827 E.05102
G1 X93.121 Y73.916 E.04977
G1 X94.708 Y74.163 E.05036
G1 X96.265 Y74.565 E.0504
G1 X97.774 Y75.117 E.0504
G1 X99.222 Y75.814 E.05038
G1 X100.594 Y76.65 E.05038
G1 X101.878 Y77.616 E.05038
G1 X103.061 Y78.704 E.0504
G1 X104.131 Y79.902 E.05037
G1 X105.079 Y81.2 E.05038
G1 X105.896 Y82.584 E.05038
G1 X106.573 Y84.042 E.0504
G1 X107.103 Y85.559 E.05039
G1 X107.482 Y87.12 E.05037
G1 X107.707 Y88.711 E.05037
G1 X107.774 Y90.317 E.05041
G1 X107.684 Y91.921 E.05038
G1 X107.437 Y93.508 E.05036
G1 X107.035 Y95.065 E.0504
G1 X106.483 Y96.574 E.0504
G1 X105.786 Y98.022 E.05038
G1 X104.95 Y99.394 E.05038
G1 X103.984 Y100.678 E.05038
G1 X102.896 Y101.861 E.0504
G1 X101.698 Y102.931 E.05037
G1 X100.4 Y103.879 E.05038
G1 X99.016 Y104.696 E.05038
G1 X97.558 Y105.373 E.0504
G1 X96.041 Y105.903 E.05039
G1 X94.48 Y106.282 E.05037
G1 X92.889 Y106.507 E.05037
G1 X91.283 Y106.574 E.05041
G1 X89.679 Y106.484 E.05039
G1 X88.092 Y106.237 E.05036
G1 X86.535 Y105.835 E.0504
G1 X85.026 Y105.283 E.0504
G1 X83.578 Y104.586 E.05038
G1 X82.206 Y103.75 E.05037
G1 X80.922 Y102.784 E.05038
G1 X79.739 Y101.696 E.0504
G1 X78.669 Y100.498 E.05037
G1 X77.721 Y99.2 E.05038
G1 X76.904 Y97.816 E.05038
G1 X76.227 Y96.358 E.0504
G1 X75.697 Y94.841 E.05039
G1 X75.318 Y93.28 E.05037
G1 X75.093 Y91.689 E.05037
G1 X75.026 Y90.083 E.05041
G1 X75.116 Y88.479 E.05038
G1 X75.363 Y86.892 E.05036
G1 X75.765 Y85.335 E.0504
G1 X76.317 Y83.826 E.0504
G1 X77.014 Y82.378 E.05038
G1 X77.85 Y81.006 E.05037
G1 X78.816 Y79.722 E.05038
G1 X79.846 Y78.602 E.04771
M204 P1000
; printing object Wheel Barn Art stamp-5.stl id:0 copy 0
G1 E-2.24 F4200
;WIPE_START
G1 F7200
G1 X81.068 Y77.5 E-.912
;WIPE_END
G1 E-.048 F4200
G1 Z.4 F720
G1 X99.634 Y80.167 F9000
G1 Z.2 F720
G1 E3.2 F2400
M204 P800
;TYPE:Perimeter
;WIDTH:0.419999
G1 F1200
G1 X100.578 Y81.022 E.03994
G1 X101.433 Y81.966 E.03994
G1 X102.192 Y82.989 E.03993
G1 X102.847 Y84.081 E.03994
G1 X103.391 Y85.233 E.03994
G1 X103.82 Y86.432 E.03993
G1 X104.13 Y87.668 E.03994
G1 X104.317 Y88.928 E.03993
G1 X104.379 Y90.2 E.03994
G1 X104.317 Y91.472 E.03994
G1 X104.13 Y92.732 E.03993
G1 X103.82 Y93.968 E.03994
G1 X103.391 Y95.167 E.03993
G1 X102.847 Y96.319 E.03994
G1 X102.192 Y97.411 E.03994
G1 X101.433 Y98.434 E.03993
G1 X100.578 Y99.378 E.03994
G1 X99.634 Y100.233 E.03994
G1 X98.611 Y100.992 E.03993
G1 X97.519 Y101.647 E.03994
G1 X96.367 Y102.191 E.03994
G1 X95.168 Y102.62 E.03993
G1 X93.932 Y102.93 E.03994
G1 X92.672 Y103.117 E.03993
G1 X91.4 Y103.179 E.03994
G1 X90.128 Y103.117 E.03994
G1 X88.868 Y102.93 E.03993
G1 X87.632 Y102.62 E.03994
G1 X86.433 Y102.191 E.03993
G1 X85.281 Y101.647 E.03994
G1 X84.189 Y100.992 E.03994
G1 X83.166 Y100.233 E.03993
G1 X82.222 Y99.378 E.03994
G1 X81.367 Y98.434 E.03994
G1 X80.608 Y97.411 E.03993
G1 X79.953 Y96.319 E.03994
G1 X79.409 Y95.167 E.03994
G1 X78.98 Y93.968 E.03993
G1 X78.67 Y92.732 E.03994
G1 X78.483 Y91.472 E.03993
G1 X78.421 Y90.2 E.03994
G1 X78.483 Y88.928 E.03994
G1 X78.67 Y87.668 E.03993
G1 X78.98 Y86.432 E.03994
G1 X79.409 Y85.233 E.03993
G1 X79.953 Y84.081 E.03994
G1 X80.608 Y82.989 E.03994
G1 X81.367 Y81.966 E.03993
G1 X82.222 Y81.022 E.03994
G1 X83.166 Y80.167 E.03994
G1 X84.189 Y79.408 E.03993
G1 X85.281 Y78.753 E.03994
G1 X86.433 Y78.209 E.03994
G1 X87.632 Y77.78 E.03993
G1 X88.868 Y77.47 E.03994
G1 X90.128 Y77.283 E.03993
G1 X91.4 Y77.221 E.03994
G1 X92.672 Y77.283 E.03994
G1 X93.932 Y77.47 E.03993
G1 X95.168 Y77.78 E.03994
G1 X96.367 Y78.209 E.03993
G1 X97.519 Y78.753 E.03994
G1 X98.611 Y79.408 E.03994
G1 X99.586 Y80.131 E.03805
M204 P1000
G1 X99.873 Y79.875 F9000
M204 P800
;TYPE:External perimeter
G1 F1200
G1 X100.845 Y80.755 E.0411
G1 X101.725 Y81.727 E.0411
G1 X102.506 Y82.779 E.04109
G1 X103.18 Y83.903 E.0411
G1 X103.74 Y85.089 E.04111
G1 X104.182 Y86.323 E.04109
G1 X104.5 Y87.594 E.0411
G1 X104.693 Y88.891 E.04109
G1 X104.757 Y90.2 E.0411
G1 X104.693 Y91.509 E.0411
G1 X104.5 Y92.806 E.04109
G1 X104.182 Y94.077 E.0411
G1 X103.74 Y95.311 E.04109
G1 X103.18 Y96.497 E.04111
G1 X102.506 Y97.621 E.0411
G1 X101.725 Y98.673 E.04109
G1 X100.845 Y99.645 E.0411
G1 X99.873 Y100.525 E.0411
G1 X98.821 Y101.306 E.04109
G1 X97.697 Y101.98 E.0411
G1 X96.511 Y102.54 E.04111
G1 X95.277 Y102.982 E.04109
G1 X94.006 Y103.3 E.0411
G1 X92.709 Y103.493 E.04109
G1 X91.4 Y103.557 E.0411
G1 X90.091 Y103.493 E.0411
G1 X88.794 Y103.3 E.04109
G1 X87.523 Y102.982 E.0411
G1 X86.289 Y102.54 E.04109
G1 X85.103 Y101.98 E.04111
G1 X83.979 Y101.306 E.0411
G1 X82.927 Y100.525 E.04109
G1 X81.955 Y99.645 E.0411
G1 X81.075 Y98.673 E.0411
G1 X80.294 Y97.621 E.04109
G1 X79.62 Y96.497 E.0411
G1 X79.06 Y95.311 E.04111
G1 X78.618 Y94.077 E.04109
G1 X78.3 Y92.806 E.0411
G1 X78.107 Y91.509 E.04109
G1 X78.043 Y90.2 E.0411
G1 X78.107 Y88.891 E.0411
G1 X78.3 Y87.594 E.04109
G1 X78.618 Y86.323 E.0411
G1 X79.06 Y85.089 E.04109
G1 X79.62 Y83.903 E.04111
G1 X80.294 Y82.779 E.0411
G1 X81.075 Y81.727 E.04109
G1 X81.955 Y80.755 E.0411
G1 X82.927 Y79.875 E.0411
G1 X83.979 Y79.094 E.04109
G1 X85.103 Y78.42 E.0411
G1 X86.289 Y77.86 E.04111
G1 X87.523 Y77.418 E.04109
G1 X88.794 Y77.1 E.0411
G1 X90.091 Y76.907 E.04109
G1 X91.4 Y76.843 E.0411
G1 X92.709 Y76.907 E.0411
G1 X94.006 Y77.1 E.04109
G1 X95.277 Y77.418 E.0411
G1 X96.511 Y77.86 E.04109
G1 X97.697 Y78.42 E.04111
G1 X98.821 Y79.094 E.0411
G1 X99.825 Y79.839 E.03921
M204 P1000
G1 X99.808 Y80.27 F9000
G1 X98.967 Y79.813
M204 P800
;TYPE:Solid infill
;WIDTH:0.421887
G1 F1200
G1 X100.388 Y81.234 E.06331
G1 X101.214 Y82.146 E.03877
G1 X101.956 Y83.146 E.03926
G1 X102.244 Y83.626 E.01762
G1 X97.974 Y79.356 E.19028
G1 X97.385 Y79.003 E.02164
G1 X96.816 Y78.734 E.01985
G1 X102.866 Y84.784 E.26964
G1 X103.13 Y85.341 E.01942
G1 X103.265 Y85.719 E.01263
G1 X95.881 Y78.335 E.32904
G1 X95.052 Y78.042 E.02771
G1 X103.558 Y86.548 E.37904
G1 X103.737 Y87.263 E.02323
G1 X94.337 Y77.863 E.41889
G1 X93.877 Y77.748 E.01495
G1 X93.653 Y77.714 E.00714
G1 X103.886 Y87.947 E.45602
G1 X103.979 Y88.576 E.02004
G1 X93.024 Y77.621 E.48821
G1 X92.645 Y77.565 E.01207
G1 X92.42 Y77.554 E.00707
G1 X104.046 Y89.18 E.51808
G1 X104.074 Y89.743 E.01778
G1 X91.857 Y77.526 E.54443
G1 X91.303 Y77.509 E.01745
G1 X104.091 Y90.297 E.56988
G1 X104.066 Y90.808 E.01612
G1 X90.792 Y77.534 E.59153
G1 X90.281 Y77.559 E.01612
G1 X104.041 Y91.319 E.61318
G1 X103.983 Y91.796 E.01516
G1 X89.804 Y77.617 E.63187
G1 X89.337 Y77.686 E.01487
G1 X103.914 Y92.263 E.64959
G1 X103.84 Y92.725 E.01476
G1 X88.875 Y77.76 E.66692
G1 X88.446 Y77.867 E.01392
G1 X103.733 Y93.154 E.68124
G1 X103.626 Y93.583 E.01392
M73 P1 R80
G1 X88.017 Y77.974 E.69555
G1 X87.599 Y78.092 E.0137
G1 X103.508 Y94.001 E.70898
G1 X103.367 Y94.396 E.01321
G1 X87.204 Y78.233 E.72028
G1 X86.809 Y78.374 E.01321
G1 X103.226 Y94.791 E.73157
G1 X103.075 Y95.175 E.01303
G1 X86.425 Y78.525 E.74199
G1 X86.061 Y78.697 E.01268
G1 X102.903 Y95.539 E.75053
G1 X102.73 Y95.903 E.01268
G1 X85.697 Y78.87 E.75908
G1 X85.34 Y79.048 E.01259
M73 P1 R79
G1 X102.552 Y96.26 E.76704
G1 X102.351 Y96.596 E.01231
G1 X85.004 Y79.249 E.77302
G1 X84.669 Y79.45 E.01231
G1 X102.15 Y96.931 E.779
G1 X101.948 Y97.265 E.0123
G1 X84.335 Y79.652 E.78489
G1 X84.028 Y79.88 E.01207
G1 X101.72 Y97.572 E.78844
G1 X101.492 Y97.88 E.01207
G1 X83.72 Y80.108 E.79198
G1 X83.412 Y80.336 E.01207
G1 X101.264 Y98.188 E.79552
G1 X101.014 Y98.475 E.01197
G1 X83.125 Y80.586 E.79721
G1 X82.844 Y80.84 E.01196
G1 X100.76 Y98.756 E.79838
G1 X100.505 Y99.037 E.01196
G1 X82.563 Y81.095 E.79956
G1 X82.295 Y81.363 E.01194
G1 X100.237 Y99.305 E.79955
G1 X99.956 Y99.56 E.01196
G1 X82.04 Y81.644 E.79838
G1 X81.785 Y81.925 E.01196
G1 X99.675 Y99.815 E.79721
G1 X99.388 Y100.064 E.01197
G1 X81.536 Y82.212 E.79552
G1 X81.308 Y82.52 E.01207
G1 X99.08 Y100.292 E.79198
G1 X98.772 Y100.52 E.01207
G1 X81.08 Y82.828 E.78844
G1 X80.852 Y83.135 E.01207
G1 X98.465 Y100.748 E.78489
G1 X98.131 Y100.95 E.0123
G1 X80.65 Y83.469 E.779
G1 X80.449 Y83.805 E.01231
G1 X97.795 Y101.151 E.77302
G1 X97.46 Y101.352 E.01231
G1 X80.248 Y84.14 E.76704
G1 X80.07 Y84.497 E.01259
G1 X97.103 Y101.53 E.75908
G1 X96.739 Y101.703 E.01268
G1 X79.897 Y84.861 E.75053
G1 X79.725 Y85.225 E.01268
G1 X96.375 Y101.875 E.74198
G1 X95.991 Y102.026 E.01303
G1 X79.574 Y85.609 E.73157
G1 X79.433 Y86.004 E.01321
G1 X95.596 Y102.167 E.72028
G1 X95.201 Y102.308 E.01321
G1 X79.292 Y86.399 E.70898
G1 X79.174 Y86.818 E.0137
G1 X94.782 Y102.426 E.69555
G1 X94.354 Y102.533 E.01392
G1 X79.067 Y87.246 E.68123
G1 X78.96 Y87.675 E.01392
G1 X93.925 Y102.64 E.66692
G1 X93.463 Y102.714 E.01476
G1 X78.886 Y88.137 E.64959
G1 X78.817 Y88.604 E.01487
G1 X92.996 Y102.783 E.63187
G1 X92.518 Y102.841 E.01516
G1 X78.759 Y89.082 E.61318
G1 X78.734 Y89.592 E.01612
G1 X92.008 Y102.866 E.59153
G1 X91.497 Y102.891 E.01612
M73 P2 R79
G1 X78.709 Y90.103 E.56988
G1 X78.726 Y90.657 E.01745
G1 X90.943 Y102.874 E.54442
G1 X90.38 Y102.846 E.01778
G1 X78.754 Y91.22 E.51808
G1 X78.765 Y91.445 E.00707
G1 X78.821 Y91.824 E.01207
G1 X89.776 Y102.779 E.48821
G1 X89.147 Y102.686 E.02004
G1 X78.914 Y92.453 E.45601
G1 X78.948 Y92.677 E.00714
G1 X79.063 Y93.137 E.01495
G1 X88.463 Y102.537 E.41889
G1 X87.748 Y102.358 E.02323
G1 X79.242 Y93.852 E.37904
G1 X79.535 Y94.681 E.02771
G1 X86.919 Y102.065 E.32904
G1 X86.541 Y101.93 E.01262
G1 X85.984 Y101.666 E.01943
G1 X79.934 Y95.616 E.26963
G1 X80.203 Y96.185 E.01984
G1 X80.556 Y96.774 E.02165
G1 X84.826 Y101.044 E.19027
G1 X84.346 Y100.756 E.01761
G1 X83.346 Y100.014 E.03926
G1 X82.433 Y99.188 E.03879
G1 X81.013 Y97.767 E.06328
M204 P1000
; stop printing object Wheel Barn Art stamp-5.stl id:0 copy 0
M106 S84.15
;LAYER_CHANGE
;Z:0.35
;HEIGHT:0.15
;BEFORE_LAYER_CHANGE
G92 E0.0
;0.35


G1 E-2.24 F4200
;WIPE_START
G1 F7200
G1 X82.177 Y98.931 E-.912
;WIPE_END
G1 E-.048 F4200
G1 Z.4 F720
;AFTER_LAYER_CHANGE
;0.35
G1 X79.164 Y101.617 F9000
G1 Z.35 F720
G1 E3.2 F2400
;TYPE:Skirt/Brim
;WIDTH:0.42
G1 X78.366 Y100.722 E.02901
G1 X77.397 Y99.394 E.03975
G1 X76.564 Y97.977 E.03975
G1 X75.872 Y96.485 E.03977
G1 X75.331 Y94.933 E.03976
G1 X74.945 Y93.335 E.03975
G1 X74.717 Y91.708 E.03975
G1 X74.649 Y90.065 E.03978
G1 X74.743 Y88.423 E.03976
G1 X74.997 Y86.8 E.03974
G1 X75.41 Y85.208 E.03977
G1 X75.976 Y83.665 E.03977
G1 X76.691 Y82.184 E.03976
G1 X77.547 Y80.782 E.03975
G1 X78.537 Y79.469 E.03975
G1 X79.651 Y78.26 E.03977
G1 X80.878 Y77.166 E.03975
G1 X82.206 Y76.197 E.03975
G1 X83.623 Y75.364 E.03975
G1 X85.115 Y74.672 E.03977
G1 X86.667 Y74.131 E.03977
G1 X88.265 Y73.745 E.03974
G1 X89.892 Y73.517 E.03975
G1 X91.555 Y73.45 E.04025
G1 X93.177 Y73.543 E.03928
G1 X94.8 Y73.797 E.03974
G1 X96.392 Y74.21 E.03977
G1 X97.935 Y74.776 E.03977
G1 X99.416 Y75.491 E.03976
G1 X100.819 Y76.347 E.03975
G1 X102.131 Y77.337 E.03975
G1 X103.341 Y78.451 E.03977
G1 X104.434 Y79.678 E.03975
G1 X105.403 Y81.006 E.03975
G1 X106.236 Y82.423 E.03975
G1 X106.928 Y83.915 E.03977
G1 X107.469 Y85.467 E.03976
G1 X107.855 Y87.065 E.03975
G1 X108.083 Y88.692 E.03974
G1 X108.151 Y90.335 E.03978
G1 X108.057 Y91.977 E.03976
G1 X107.803 Y93.6 E.03974
G1 X107.39 Y95.192 E.03977
G1 X106.824 Y96.735 E.03977
G1 X106.109 Y98.216 E.03976
G1 X105.253 Y99.619 E.03975
G1 X104.263 Y100.931 E.03975
G1 X103.149 Y102.141 E.03977
G1 X101.922 Y103.234 E.03975
G1 X100.594 Y104.203 E.03975
G1 X99.177 Y105.036 E.03975
G1 X97.685 Y105.728 E.03977
G1 X96.133 Y106.269 E.03977
G1 X94.535 Y106.655 E.03974
G1 X92.908 Y106.883 E.03975
G1 X91.265 Y106.951 E.03978
G1 X89.623 Y106.857 E.03976
G1 X88 Y106.603 E.03974
G1 X86.408 Y106.19 E.03977
G1 X84.865 Y105.624 E.03977
G1 X83.384 Y104.909 E.03976
G1 X81.982 Y104.053 E.03975
G1 X80.669 Y103.063 E.03975
G1 X79.459 Y101.949 E.03977
G1 X79.204 Y101.662 E.00929
G1 X79.485 Y101.411 F9000
G1 F2400
G1 X78.669 Y100.498 E.02963
G1 X77.721 Y99.2 E.03886
G1 X76.904 Y97.816 E.03886
G1 X76.227 Y96.358 E.03887
G1 X75.697 Y94.841 E.03887
G1 X75.318 Y93.28 E.03885
G1 X75.093 Y91.689 E.03885
G1 X75.026 Y90.083 E.03888
G1 X75.116 Y88.479 E.03886
G1 X75.363 Y86.892 E.03885
G1 X75.765 Y85.335 E.03887
G1 X76.317 Y83.826 E.03887
G1 X77.014 Y82.378 E.03886
G1 X77.85 Y81.006 E.03886
G1 X78.816 Y79.722 E.03886
G1 X79.904 Y78.539 E.03887
G1 X81.102 Y77.469 E.03886
G1 X82.4 Y76.521 E.03886
G1 X83.784 Y75.704 E.03886
G1 X85.242 Y75.027 E.03887
G1 X86.759 Y74.497 E.03887
G1 X88.32 Y74.118 E.03885
G1 X89.911 Y73.893 E.03885
G1 X91.537 Y73.827 E.03936
G1 X93.121 Y73.916 E.03839
