; generated by PrusaSlicer 2.5.0+MacOS-x64 on 2023-02-18 at 21:26:09 UTC


;
;

;
;
; 

; external perimeters extrusion width = 0.45mm
; perimeters extrusion width = 0.45mm
; infill extrusion width = 0.45mm
; solid infill extrusion width = 0.45mm
; top infill extrusion width = 0.40mm
; support material extrusion width = 0.35mm
; first layer extrusion width = 0.42mm

M73 P0 R112
M201 X2500 Y2500 Z400 E5000 ; sets maximum accelerations, mm/sec^2
M203 X180 Y180 Z12 E80 ; sets maximum feedrates, mm / sec
M204 P1250 R1250 T2500 ; sets acceleration (P, T) and retract acceleration (R), mm/sec^2
M205 X8.00 Y8.00 Z2.00 E10.00 ; sets the jerk limits, mm/sec
M205 S0 T0 ; sets the minimum extruding and travel feed rate, mm/sec
M107
;TYPE:Custom
M862.3 P "MINI" ; printer model check
G90 ; use absolute coordinates
M83 ; extruder relative mode
M104 S170 ; set extruder temp for bed leveling
M140 S60 ; set bed temp
M109 R170 ; wait for bed leveling temp
M190 S60 ; wait for bed temp
M204 T1250 ; set travel acceleration
G28 ; home all without mesh bed level
G29 ; mesh bed leveling 
M204 T2500 ; restore travel acceleration
M104 S215 ; set extruder temp
G92 E0
G1 Y-2 X179 F2400
G1 Z3 F720
M109 S215 ; wait for extruder temp

; intro line
G1 X170 F1000
G1 Z0.2 F720
G1 X110 E8 F900
G1 X40 E10 F700
G92 E0

M221 S95 ; set flow
G21 ; set units to millimeters
G90 ; use absolute coordinates
M83 ; use relative distances for extrusion
M900 K0.2 ; Filament gcode LA 1.5
; ; Filament gcode LA 1.0
M107
;LAYER_CHANGE
;Z:0.2
;HEIGHT:0.2
;BEFORE_LAYER_CHANGE
G92 E0.0
;0.2


G1 E-3.2 F4200
G1 Z.2 F720
;AFTER_LAYER_CHANGE
;0.2
G1 Z.4
G1 X64.596 Y64.596 F9000
G1 Z.2 F720
G1 E3.2 F2400
M204 P800
;TYPE:Skirt/Brim
;WIDTH:0.42
G1 F1200
G1 X65.128 Y64.065 E.02357
G1 X69.763 Y61.747 E.1625
G1 X70.827 Y61.496 E.03425
G1 X109.173 Y61.496 E1.20234
G1 X110.237 Y61.747 E.03425
G1 X114.872 Y64.065 E.1625
G1 X115.935 Y65.128 E.04714
G1 X122.889 Y79.035 E.48751
G1 X123.14 Y80.098 E.03425
G1 X123.14 Y99.902 E.62096
G1 X122.889 Y100.965 E.03425
G1 X115.935 Y114.872 E.48751
G1 X115.128 Y115.787 E.03826
G1 X108.174 Y120.423 E.26203
G1 X107.607 Y120.7 E.01979
G1 X100.654 Y123.018 E.22981
G1 X99.902 Y123.14 E.02388
G1 X80.098 Y123.14 E.62096
G1 X79.346 Y123.018 E.02388
G1 X72.393 Y120.7 E.22981
G1 X71.826 Y120.423 E.01979
G1 X64.872 Y115.787 E.26203
G1 X64.065 Y114.872 E.03826
G1 X57.111 Y100.965 E.48751
G1 X56.86 Y99.902 E.03425
G1 X56.86 Y80.098 E.62096
G1 X57.111 Y79.035 E.03425
G1 X64.065 Y65.128 E.48751
G1 X64.554 Y64.639 E.02169
M204 P1000
; printing object Wheel Barn Art stamp.stl id:0 copy 0
G1 E-2.24 F4200
;WIPE_START
G1 F7200
G1 X65.128 Y64.065 E-.44982
G1 X65.874 Y63.692 E-.46218
;WIPE_END
G1 E-.048 F4200
G1 Z.4 F720
G1 X109.173 Y66.191 F9000
G1 Z.2 F720
G1 E3.2 F2400
M204 P800
;TYPE:Support material
G1 F1200
G1 X113.809 Y66.191 E.14535
G1 X113.809 Y70.827 E.14535
G1 X116.127 Y70.827 E.07267
G1 X116.127 Y80.098 E.29069
G1 X120.763 Y80.098 E.14535
G1 X120.763 Y99.902 E.62096
G1 X118.445 Y99.902 E.07267
G1 X118.445 Y102.22 E.07267
G1 X116.127 Y102.22 E.07267
G1 X116.127 Y109.173 E.21802
G1 X113.809 Y109.173 E.07267
G1 X113.809 Y113.809 E.14535
G1 X109.173 Y113.809 E.14535
G1 X109.173 Y116.127 E.07267
G1 X106.856 Y116.127 E.07267
G1 X106.856 Y118.445 E.07267
G1 X99.902 Y118.445 E.21802
G1 X99.902 Y120.763 E.07267
G1 X80.098 Y120.763 E.62096
G1 X80.098 Y118.445 E.07267
G1 X73.144 Y118.445 E.21802
G1 X73.144 Y116.127 E.07267
G1 X70.827 Y116.127 E.07267
G1 X70.827 Y113.809 E.07267
G1 X66.191 Y113.809 E.14535
G1 X66.191 Y109.173 E.14535
G1 X63.873 Y109.173 E.07267
G1 X63.873 Y102.22 E.21802
G1 X61.555 Y102.22 E.07267
G1 X61.555 Y99.902 E.07267
G1 X59.237 Y99.902 E.07267
G1 X59.237 Y80.098 E.62096
G1 X61.555 Y80.098 E.07267
G1 X61.555 Y77.78 E.07267
G1 X63.873 Y77.78 E.07267
G1 X63.873 Y70.827 E.21802
G1 X66.191 Y70.827 E.07267
G1 X66.191 Y66.191 E.14535
G1 X70.827 Y66.191 E.14535
G1 X70.827 Y63.873 E.07267
M73 P0 R111
G1 X109.173 Y63.873 E1.20234
G1 X109.173 Y66.134 E.0709
M204 P1000
G1 X90.663 Y73.401 F9000
M204 P800
G1 F1200
G1 X89.102 Y73.479 E.049
G1 X87.557 Y73.709 E.049
G1 X86.041 Y74.09 E.049
G1 X84.571 Y74.618 E.04898
G1 X83.158 Y75.287 E.04901
G1 X81.818 Y76.092 E.049
G1 X80.564 Y77.023 E.04899
G1 X79.407 Y78.074 E.049
G1 X78.358 Y79.232 E.049
G1 X77.428 Y80.488 E.04898
G1 X76.626 Y81.829 E.049
G1 X75.959 Y83.242 E.04901
G1 X75.433 Y84.714 E.04899
G1 X75.059 Y86.207 E.04827
G1 X74.829 Y87.752 E.04899
G1 X74.751 Y89.313 E.049
G1 X74.827 Y90.874 E.049
G1 X75.055 Y92.42 E.04899
G1 X75.433 Y93.936 E.049
G1 X75.959 Y95.408 E.04899
G1 X76.626 Y96.821 E.04901
G1 X77.428 Y98.162 E.049
G1 X78.358 Y99.418 E.04899
G1 X79.407 Y100.576 E.049
G1 X80.564 Y101.627 E.049
G1 X81.818 Y102.558 E.04899
G1 X83.158 Y103.363 E.049
G1 X84.57 Y104.032 E.04901
G1 X86.041 Y104.56 E.04899
G1 X87.557 Y104.941 E.049
G1 X89.102 Y105.171 E.04899
G1 X90.663 Y105.249 E.049
G1 X92.224 Y105.173 E.049
G1 X93.77 Y104.945 E.04899
G1 X95.286 Y104.567 E.049
G1 X96.758 Y104.041 E.04899
G1 X98.171 Y103.374 E.04901
G1 X99.512 Y102.572 E.049
G1 X100.768 Y101.642 E.04899
G1 X101.926 Y100.593 E.049
G1 X102.977 Y99.436 E.049
G1 X103.908 Y98.182 E.04899
G1 X104.713 Y96.842 E.049
G1 X105.382 Y95.43 E.04901
G1 X105.91 Y93.959 E.04899
G1 X106.291 Y92.443 E.049
G1 X106.521 Y90.898 E.04899
G1 X106.599 Y89.337 E.049
G1 X106.523 Y87.776 E.049
G1 X106.295 Y86.23 E.04899
G1 X105.917 Y84.714 E.049
G1 X105.391 Y83.242 E.04899
G1 X104.724 Y81.829 E.04901
G1 X103.922 Y80.488 E.049
G1 X102.992 Y79.232 E.04899
G1 X101.943 Y78.074 E.049
G1 X100.786 Y77.023 E.049
G1 X99.532 Y76.092 E.04899
G1 X98.192 Y75.287 E.049
G1 X96.78 Y74.618 E.04901
G1 X95.309 Y74.09 E.04899
G1 X93.793 Y73.709 E.049
G1 X92.248 Y73.479 E.04899
G1 X90.72 Y73.403 E.04797
M204 P1000
G1 E-2.24 F4200
;WIPE_START
G1 F7200
G1 X92.248 Y73.479 E-.8478
G1 X92.362 Y73.496 E-.0642
;WIPE_END
G1 E-.048 F4200
G1 Z.4 F720
G1 X120.166 Y99.733 F9000
G1 Z.2 F720
G1 E3.2 F2400
M204 P800
G1 F1200
G1 X120.166 Y80.437 E.60499
G1 X119.747 Y80.437 E.01314
G1 X119.747 Y99.563 E.59967
G1 X119.328 Y99.563 E.01314
G1 X119.328 Y80.437 E.59967
G1 X118.909 Y80.437 E.01314
G1 X118.909 Y99.563 E.59967
G1 X118.49 Y99.563 E.01314
G1 X118.49 Y80.437 E.59967
G1 X118.071 Y80.437 E.01314
G1 X118.071 Y101.881 E.67235
G1 X117.652 Y101.881 E.01314
G1 X117.652 Y80.437 E.67235
G1 X117.234 Y80.437 E.01314
G1 X117.234 Y101.881 E.67235
G1 X116.815 Y101.881 E.01314
G1 X116.815 Y80.437 E.67235
G1 X116.396 Y80.437 E.01314
G1 X116.396 Y101.881 E.67235
G1 X115.977 Y101.881 E.01314
G1 X115.977 Y80.437 E.67235
G1 X115.788 Y80.437 E.00593
G1 X115.788 Y71.166 E.29069
G1 X115.558 Y71.166 E.00721
G1 X115.558 Y108.834 E1.18106
G1 X115.139 Y108.834 E.01314
G1 X115.139 Y71.166 E1.18106
G1 X114.72 Y71.166 E.01314
G1 X114.72 Y108.834 E1.18106
G1 X114.301 Y108.834 E.01314
G1 X114.301 Y71.166 E1.18106
G1 X113.882 Y71.166 E.01314
G1 X113.882 Y108.834 E1.18106
G1 X113.47 Y108.834 E.01292
G1 X113.463 Y113.47 E.14535
G1 X113.463 Y66.53 E1.47175
M73 P1 R111
G1 X113.044 Y66.53 E.01314
G1 X113.044 Y113.47 E1.47175
G1 X112.625 Y113.47 E.01314
G1 X112.625 Y66.53 E1.47175
G1 X112.206 Y66.53 E.01314
G1 X112.206 Y113.47 E1.47175
G1 X111.787 Y113.47 E.01314
G1 X111.787 Y66.53 E1.47175
G1 X111.368 Y66.53 E.01314
G1 X111.368 Y113.47 E1.47175
G1 X110.949 Y113.47 E.01314
G1 X110.949 Y66.53 E1.47175
G1 X110.53 Y66.53 E.01314
G1 X110.53 Y113.47 E1.47175
G1 X110.111 Y113.47 E.01314
G1 X110.111 Y66.53 E1.47175
G1 X109.692 Y66.53 E.01314
G1 X109.692 Y113.47 E1.47175
G1 X109.273 Y113.47 E.01314
G1 X109.273 Y66.53 E1.47175
G1 X108.854 Y66.53 E.01314
G1 X108.854 Y113.47 E1.47175
G1 X108.834 Y113.47 E.00062
G1 X108.834 Y115.788 E.07267
G1 X108.435 Y115.788 E.01251
G1 X108.435 Y64.212 E1.6171
G1 X108.016 Y64.212 E.01314
M73 P1 R110
G1 X108.016 Y115.788 E1.6171
G1 X107.597 Y115.788 E.01314
G1 X107.597 Y64.212 E1.6171
G1 X107.178 Y64.212 E.01314
G1 X107.178 Y115.788 E1.6171
G1 X106.759 Y115.788 E.01314
G1 X106.759 Y91.606 E.75818
G1 X106.622 Y92.518 E.02889
G1 X106.34 Y93.643 E.03637
G1 X106.34 Y118.105 E.76701
G1 X105.921 Y118.105 E.01314
G1 X105.921 Y94.935 E.7265
G1 X105.708 Y95.53 E.01982
G1 X105.502 Y95.97 E.01524
G1 X105.502 Y118.105 E.69403
G1 X105.083 Y118.105 E.01314
G1 X105.083 Y96.856 E.66626
G1 X104.664 Y97.584 E.02632
G1 X104.664 Y118.105 E.64345
G1 X104.245 Y118.105 E.01314
G1 X104.245 Y98.282 E.62154
G1 X103.826 Y98.862 E.02243
G1 X103.826 Y118.105 E.60335
G1 X103.407 Y118.105 E.01314
G1 X103.407 Y99.427 E.58564
G1 X103.234 Y99.658 E.00904
G1 X102.988 Y99.929 E.01147
G1 X102.988 Y118.105 E.56992
G1 X102.569 Y118.105 E.01314
G1 X102.569 Y100.391 E.55542
G1 X102.15 Y100.848 E.01945
G1 X102.15 Y118.105 E.54108
G1 X101.731 Y118.105 E.01314
G1 X101.731 Y101.228 E.52918
G1 X101.312 Y101.608 E.01773
G1 X101.312 Y118.105 E.51727
G1 X100.893 Y118.105 E.01314
G1 X100.893 Y101.971 E.50588
G1 X100.474 Y102.282 E.01636
G1 X100.474 Y118.105 E.49614
G1 X100.055 Y118.105 E.01314
G1 X100.055 Y102.593 E.48639
G1 X99.636 Y102.893 E.01616
G1 X99.636 Y118.105 E.47698
G1 X99.563 Y118.105 E.00231
G1 X99.563 Y120.423 E.07267
G1 X99.217 Y120.423 E.01083
G1 X99.217 Y103.144 E.54178
G1 X98.799 Y103.395 E.01532
G1 X98.799 Y120.423 E.5339
G1 X98.38 Y120.423 E.01314
G1 X98.38 Y103.646 E.52602
G1 X97.961 Y103.849 E.0146
G1 X97.961 Y120.423 E.51966
G1 X97.542 Y120.423 E.01314
G1 X97.542 Y104.047 E.51345
G1 X97.123 Y104.246 E.01453
G1 X97.123 Y120.423 E.50724
G1 X96.704 Y120.423 E.01314
G1 X96.704 Y104.421 E.50173
G1 X96.285 Y104.571 E.01395
G1 X96.285 Y120.423 E.49703
G1 X95.866 Y120.423 E.01314
G1 X95.866 Y104.721 E.49233
G1 X95.447 Y104.871 E.01395
G1 X95.447 Y120.423 E.48763
G1 X95.028 Y120.423 E.01314
G1 X95.028 Y104.981 E.48417
G1 X94.609 Y105.086 E.01354
G1 X94.609 Y120.423 E.48088
G1 X94.19 Y120.423 E.01314
M73 P2 R110
G1 X94.19 Y105.191 E.47758
G1 X93.771 Y105.288 E.01348
G1 X93.771 Y120.423 E.47454
G1 X93.352 Y120.423 E.01314
G1 X93.352 Y105.35 E.47259
G1 X92.933 Y105.413 E.01328
G1 X92.933 Y120.423 E.47065
G1 X92.514 Y120.423 E.01314
G1 X92.514 Y105.475 E.4687
G1 X92.095 Y105.519 E.01321
G1 X92.095 Y120.423 E.4673
G1 X91.676 Y120.423 E.01314
G1 X91.676 Y105.54 E.46665
G1 X91.257 Y105.561 E.01315
G1 X91.257 Y120.423 E.46601
G1 X90.838 Y120.423 E.01314
G1 X90.838 Y105.581 E.46536
G1 X90.419 Y105.577 E.01314
G1 X90.419 Y120.423 E.46551
G1 X90 Y120.423 E.01314
G1 X90 Y105.556 E.46615
G1 X89.581 Y105.535 E.01315
G1 X89.581 Y120.423 E.46679
G1 X89.162 Y120.423 E.01314
G1 X89.162 Y105.515 E.46744
G1 X88.743 Y105.461 E.01325
G1 X88.743 Y120.423 E.46913
G1 X88.324 Y120.423 E.01314
G1 X88.324 Y105.399 E.47108
G1 X87.905 Y105.337 E.01328
G1 X87.905 Y120.423 E.47303
G1 X87.486 Y120.423 E.01314
G1 X87.486 Y105.273 E.47503
G1 X87.067 Y105.168 E.01354
G1 X87.067 Y120.423 E.47832
G1 X86.648 Y120.423 E.01314
G1 X86.648 Y105.063 E.48161
G1 X86.229 Y104.958 E.01354
G1 X86.229 Y120.423 E.4849
G1 X85.81 Y120.423 E.01314
G1 X85.81 Y104.838 E.48867
G1 X85.391 Y104.688 E.01395
G1 X85.391 Y120.423 E.49337
G1 X84.972 Y120.423 E.01314
G1 X84.972 Y104.538 E.49807
G1 X84.553 Y104.388 E.01395
G1 X84.553 Y120.423 E.50277
G1 X84.134 Y120.423 E.01314
G1 X84.134 Y104.202 E.50862
G1 X83.715 Y104.003 E.01453
G1 X83.715 Y120.423 E.51483
G1 X83.296 Y120.423 E.01314
G1 X83.296 Y103.805 E.52104
G1 X82.877 Y103.591 E.01476
G1 X82.877 Y120.423 E.52777
G1 X82.458 Y120.423 E.01314
M73 P2 R109
G1 X82.458 Y103.339 E.53565
G1 X82.039 Y103.088 E.01532
G1 X82.039 Y120.423 E.54353
G1 X81.62 Y120.423 E.01314
G1 X81.62 Y102.834 E.55149
G1 X81.201 Y102.524 E.01636
G1 X81.201 Y120.423 E.56123
G1 X80.783 Y120.423 E.01314
G1 X80.783 Y102.213 E.57097
G1 X80.364 Y101.901 E.01637
G1 X80.364 Y118.105 E.50807
G1 X79.945 Y118.105 E.01314
G1 X79.945 Y101.523 E.51992
G1 X79.526 Y101.144 E.01773
G1 X79.526 Y118.105 E.53182
G1 X79.107 Y118.105 E.01314
G1 X79.107 Y100.751 E.54415
G1 X78.688 Y100.288 E.01956
G1 X78.688 Y118.105 E.55864
G1 X78.269 Y118.105 E.01314
G1 X78.269 Y99.826 E.57314
G1 X78.091 Y99.627 E.00838
G1 X77.85 Y99.302 E.01268
G1 X77.85 Y118.105 E.58958
G1 X77.431 Y118.105 E.01314
G1 X77.431 Y98.737 E.60729
G1 X77.164 Y98.377 E.01404
G1 X77.012 Y98.127 E.00918
G1 X77.012 Y118.105 E.62641
G1 X76.593 Y118.105 E.01314
G1 X76.593 Y97.428 E.64831
G1 X76.342 Y97.01 E.01531
G1 X76.174 Y96.659 E.01218
G1 X76.174 Y118.105 E.67243
G1 X75.755 Y118.105 E.01314
G1 X75.755 Y95.773 E.7002
G1 X75.642 Y95.53 E.00841
G1 X75.336 Y94.675 E.02848
G1 X75.336 Y118.105 E.73465
G1 X74.917 Y118.105 E.01314
G1 X74.917 Y92.573 E.80055
M204 P1000
G1 E-2.24 F4200
;WIPE_START
G1 F7200
G1 X74.917 Y94.219 E-.912
;WIPE_END
G1 E-.048 F4200
G1 Z.4 F720
G1 X106.759 Y89.119 F9000
G1 Z.2 F720
G1 E3.2 F2400
M204 P800
G1 F1200
G1 X106.759 Y64.212 E.78093
G1 X106.34 Y64.212 E.01314
G1 X106.34 Y85.007 E.652
G1 X106.232 Y84.585 E.01368
G1 X105.921 Y83.715 E.02895
G1 X105.921 Y64.212 E.6115
G1 X105.502 Y64.212 E.01314
G1 X105.502 Y82.68 E.57903
G1 X105.083 Y81.794 E.03073
G1 X105.083 Y64.212 E.55125
G1 X104.664 Y64.212 E.01314
G1 X104.664 Y81.066 E.52844
G1 X104.245 Y80.368 E.02554
G1 X104.245 Y64.212 E.50654
G1 X103.826 Y64.212 E.01314
G1 X103.826 Y79.788 E.48835
G1 X103.407 Y79.223 E.02205
G1 X103.407 Y64.212 E.47064
G1 X102.988 Y64.212 E.01314
G1 X102.988 Y78.721 E.45492
G1 X102.569 Y78.259 E.01956
G1 X102.569 Y64.212 E.44042
G1 X102.15 Y64.212 E.01314
G1 X102.15 Y77.802 E.42608
G1 X101.731 Y77.422 E.01773
G1 X101.731 Y64.212 E.41418
G1 X101.312 Y64.212 E.01314
G1 X101.312 Y77.042 E.40227
G1 X100.893 Y76.679 E.01739
G1 X100.893 Y64.212 E.39088
G1 X100.474 Y64.212 E.01314
G1 X100.474 Y76.368 E.38113
G1 X100.055 Y76.057 E.01636
G1 X100.055 Y64.212 E.37139
G1 X99.636 Y64.212 E.01314
G1 X99.636 Y75.757 E.36198
G1 X99.217 Y75.506 E.01532
G1 X99.217 Y64.212 E.3541
G1 X98.799 Y64.212 E.01314
G1 X98.799 Y75.255 E.34623
G1 X98.38 Y75.004 E.01532
G1 X98.38 Y64.212 E.33835
G1 X97.961 Y64.212 E.01314
G1 X97.961 Y74.801 E.33199
G1 X97.542 Y74.603 E.01453
G1 X97.542 Y64.212 E.32577
G1 X97.123 Y64.212 E.01314
G1 X97.123 Y74.404 E.31956
G1 X96.704 Y74.229 E.01424
G1 X96.704 Y64.212 E.31405
G1 X96.285 Y64.212 E.01314
G1 X96.285 Y74.079 E.30935
G1 X95.866 Y73.929 E.01395
G1 X95.866 Y64.212 E.30465
G1 X95.447 Y64.212 E.01314
G1 X95.447 Y73.779 E.29995
G1 X95.028 Y73.669 E.01358
G1 X95.028 Y64.212 E.29649
G1 X94.609 Y64.212 E.01314
G1 X94.609 Y73.564 E.2932
G1 X94.19 Y73.459 E.01354
G1 X94.19 Y64.212 E.28991
G1 X93.771 Y64.212 E.01314
G1 X93.771 Y73.362 E.28687
G1 X93.352 Y73.3 E.01328
G1 X93.352 Y64.212 E.28492
G1 X92.933 Y64.212 E.01314
G1 X92.933 Y73.237 E.28297
G1 X92.514 Y73.175 E.01328
G1 X92.514 Y64.212 E.28102
G1 X92.095 Y64.212 E.01314
G1 X92.095 Y73.131 E.27962
G1 X91.676 Y73.11 E.01315
G1 X91.676 Y64.212 E.27898
G1 X91.257 Y64.212 E.01314
G1 X91.257 Y73.089 E.27833
G1 X90.838 Y73.069 E.01315
G1 X90.838 Y64.212 E.27769
M73 P3 R109
G1 X90.419 Y64.212 E.01314
G1 X90.419 Y73.073 E.27783
G1 X90 Y73.094 E.01315
G1 X90 Y64.212 E.27847
G1 X89.581 Y64.212 E.01314
G1 X89.581 Y73.115 E.27912
G1 X89.162 Y73.135 E.01315
G1 X89.162 Y64.212 E.27976
G1 X88.743 Y64.212 E.01314
G1 X88.743 Y73.189 E.28146
G1 X88.324 Y73.251 E.01328
G1 X88.324 Y64.212 E.2834
G1 X87.905 Y64.212 E.01314
G1 X87.905 Y73.313 E.28535
G1 X87.486 Y73.377 E.01329
G1 X87.486 Y64.212 E.28736
G1 X87.067 Y64.212 E.01314
G1 X87.067 Y73.482 E.29064
G1 X86.648 Y73.587 E.01354
G1 X86.648 Y64.212 E.29393
G1 X86.229 Y64.212 E.01314
G1 X86.229 Y73.692 E.29722
G1 X85.81 Y73.812 E.01367
G1 X85.81 Y64.212 E.301
G1 X85.391 Y64.212 E.01314
G1 X85.391 Y73.962 E.3057
G1 X84.972 Y74.112 E.01395
G1 X84.972 Y64.212 E.3104
G1 X84.553 Y64.212 E.01314
G1 X84.553 Y74.262 E.3151
G1 X84.134 Y74.448 E.01438
G1 X84.134 Y64.212 E.32094
G1 X83.715 Y64.212 E.01314
G1 X83.715 Y74.647 E.32715
G1 X83.296 Y74.845 E.01453
G1 X83.296 Y64.212 E.33337
G1 X82.877 Y64.212 E.01314
G1 X82.877 Y75.059 E.3401
G1 X82.458 Y75.311 E.01532
G1 X82.458 Y64.212 E.34798
G1 X82.039 Y64.212 E.01314
G1 X82.039 Y75.562 E.35585
G1 X81.62 Y75.816 E.01536
G1 X81.62 Y64.212 E.36381
G1 X81.201 Y64.212 E.01314
G1 X81.201 Y76.126 E.37356
